web/packages/design/src/ResourceIcon/assets/digicert-dark.svg

<svg width="72" height="72" viewBox="0 0 72 72" fill="none" xmlns="http://www.w3.org/2000/svg">
<g clip-path="url(#clip0_15937_7203)">
<path d="M10.4902 45.3729C10.4902 37.3007 12.6573 30.935 16.8559 26.1134C21.19 21.2917 26.6076 18.8809 33.3525 18.8809C35.5196 18.8809 37.5783 19.1246 39.5015 19.7206C41.4248 20.2082 42.8604 20.9125 43.944 21.7793C45.0275 22.6461 46.0026 23.3504 46.8424 24.1901C47.6821 25.0298 48.278 25.6258 48.6573 26.2488L49.0094 27.0885H49.2532C49.1449 26.1134 49.0094 24.9215 49.0094 23.7296V0.000488281H58.7611V70.7815H49.497V65.9599L49.6054 62.6009H49.3616C49.2532 62.8447 49.0094 63.1969 48.7656 63.5761C48.5218 63.9553 47.9259 64.768 47.0862 65.8515C46.2464 66.935 45.1629 67.9102 43.944 68.7499C42.7521 69.5897 41.181 70.321 39.1223 71.0253C37.0636 71.7567 34.8966 72.0005 32.6212 72.0005C25.7679 72.0005 20.3503 69.5897 16.3683 64.6596C12.5489 59.7025 10.4902 53.3368 10.4902 45.3729ZM20.4857 45.3729C20.4857 50.8989 21.813 55.233 24.4677 58.619C27.1223 61.8696 30.5896 63.549 34.8153 63.549C38.9056 63.549 42.3999 61.9779 45.2984 58.9711C48.0613 55.9644 49.5241 51.3865 49.5241 45.2375C49.5241 40.3075 48.3322 36.0818 45.7859 32.5874C43.2668 28.9847 39.7724 27.1698 35.1945 27.1698C31.1042 27.1698 27.6099 28.7409 24.7115 31.9915C21.813 35.4046 20.4857 39.7386 20.4857 45.3729Z" fill="white"/>
</g>
<defs>
<clipPath id="clip0_15937_7203">
<rect width="72" height="72" fill="white" transform="translate(0 0.000488281)"/>
</clipPath>
</defs>
</svg>

<svg xmlns="http://www.w3.org/2000/svg" width="72" height="72" fill="none" viewBox="0 0 72 72"><g clip-path="url(#a)"><path fill="#fff" d="M10.49 45.373c0-8.072 2.167-14.438 6.366-19.26 4.334-4.821 9.752-7.232 16.496-7.232 2.168 0 4.226.244 6.15.84 1.923.487 3.358 1.192 4.442 2.058 1.084.867 2.059 1.571 2.898 2.411.84.84 1.436 1.436 1.815 2.059l.352.84h.244c-.108-.976-.244-2.167-.244-3.36V0h9.752v70.782h-9.264V65.96l.108-3.36h-.243c-.109.245-.353.597-.596.976-.244.38-.84 1.192-1.68 2.276s-1.923 2.058-3.142 2.898c-1.192.84-2.763 1.571-4.822 2.275-2.058.732-4.225.975-6.5.975-6.854 0-12.272-2.41-16.254-7.34-3.82-4.957-5.878-11.323-5.878-19.287m9.996 0c0 5.526 1.327 9.86 3.982 13.246 2.654 3.25 6.122 4.93 10.347 4.93 4.09 0 7.585-1.571 10.483-4.578 2.763-3.007 4.226-7.584 4.226-13.733 0-4.93-1.192-9.156-3.738-12.65-2.52-3.603-6.014-5.418-10.592-5.418-4.09 0-7.584 1.57-10.483 4.821-2.898 3.414-4.225 7.748-4.225 13.382"/></g><defs><clipPath id="a"><path fill="#fff" d="M0 0h72v72H0z"/></clipPath></defs></svg>
